X:1
T:Sinfonia
T:Sinfonia in G Major 
T:J.S. Bach
T:For Piano Christmas Oratorio Part II BWV 248, No. 10
T:Arr.: W. Niemann
T:JSG Fernandez, 2016
T:JSG Fernandez, 2016
T:JSG Fernandez, 2016
T:JSG Fernandez, 2016
T:JSG Fernandez, 2016
T:JSG Fernandez, 2016
T:JSG Fernandez, 2016
C:J.S. Bach
Z:JSG Fernandez, 2016
%%score { ( 1 2 5 ) | ( 3 4 6 ) }
L:1/8
Q:1/4=74
M:12/8
K:G
V:1 treble nm="Piano" snm="Pno."
V:2 treble 
V:5 treble 
V:3 bass 
V:4 bass 
V:6 bass 
V:1
!mp! (B>dg) (g>fg)!<(! (B>eg) ([eg]>f(g)!<)! | G>AG)!<(! F>A[A-c]!<)!!>(! (A>BA)!>)! (G>Bd) | %2
!<(! f>ea!<)!!>(! (!tenuto!g^f)!>)! e-!<(! e>dg!<)!!>(! (!tenuto!fe)!>)! (d- | %3
!<(! [Bd]>[ce][Ac]- [Ac]>[Bd]!<)![GB])"^(     )" ([DGB]2 A) [Ac]3- | %4
 [Ac]2 B B3- B2 [^GB] (!>![Bd]3- | %5
"_-       -         cresc.      -         -          -         -         -         -        -         -" [Bd]2 ^c) (!>!=g3- g2 b) (!>!b3- | %6
 b2 a) x2!f! [Ag]"^un pochett. sostenuto"!<(! (f>d)g!<)!!>(! (f>g)e!>)! | %7
{e} d6-"^decresc." (d>!<(!D)G!<)!"^dolce e"!>(! (F>G)!>)!E | %8
"^tranquillo"!p!!<(! D3-"^espr." D2 z!<)!!<(! ([GB]2 [FA])!<)!!>(! ([FA]2 [DG])!>)! | %9
!<(! G>e!>!d-!<)!!>(! d>GF!>)!!p!!<(! (G>e!>!d-)!<)!!>(! d>GF!>)! | %10
!mp!!<(! (B>dg) (g>f!<)!g)!mf! ([GB]2 [A^d]) ([Ad]2 [Be]) | %11
 [Be]2 A (G2 [Ac])!p! ([GB]2 [A^d]) ([Ge]2 [fa]) | %12
!mp!!<(! [eg]2 [Bd] (B2 c)!<)!!mf!"^espr."!<(! (G2!<)! =F)!>(! (F2!>)! E) | %13
!<(! c>a!>![Bg-]!<)!!>(! [cg]>cB!>)!!p!!<(! c>a!>![Bg-]!<)!!>(! [cg]>c!>)!B | %14
!<(! [Gc] z z!<)!!>(! (c3-!>)!!<(! c2 B)!<)!!>(! B2!>)! B- | %15
!<(! (G2 D) (D2 E)!<)!"_poco""^(     )" D2 !>![Aa]!f! !>!c2-"_espr." !>!A | %16
 !tenuto!D2 z z2 D !tenuto!G,2 E (D2[I:staff +1] ^G,) | %17
"_cresc."[I:staff -1] z2 (!>!e- e>^d!>!a-!p!"_poco" ag)!f! z z2 z | %18
!mf!"_espr."!<(! (G>Be)!<)!!>(! (e>^de)!>)!!p!!<(! (G>Be)!<)!!>(! (e>de)!>)! | %19
!mf! (a2 g)"^espr." (g2 f) ([fa]2 [eg]) ([eg]2 [^df]) | %20
 [eg]2 [eg]"_cresc." ([eg]>[fa][eg]) e3- e>^d^c | %21
 f2 ^d"_cresc." (e2 f)[Q:1/4=70]"_poco rit."!<(! B>c'!>!b-!<)!!>(! b>(ed)!>)! | %22
!mp![Q:1/4=74]"^a tempo,tranquillo" !>!e2 z (e>^de)!<(! (G>ce) (e>d!<)!e) | %23
 (E>FE)"_cresc.       -       poco       -       a       -       poco       -       -       -       -       -       -       -       -       -"!<(! ^D>FF-!<)!!>(! F>GF!>)! (E>G[G-B]) | %24
 (G>AG)!<(! (F>Ac)!<)!!>(! A>BA!>)! (G>B!>![Bd]-) | %25
"_-          -          -          -          -          -          -          -          dim.          -          -          -           espr. e tranq." B>^cB (A>ce-) (g>f)b (a>b)g | %26
 (f>d)g (f>g)e (d>D)G (d>e)^c | %27
!mf!!<(! ([df]2"_espr." [^ce])!<)!!>(! ([ce]2 [Ad])!>)!!<(! d>b!>![^ca-]!<)!!>(! [da]>dc!>)! | %28
!p! d>!<(!b!>![^ca-]!<)!!>(! [da]>dc!>)!!mp! (f>!<(!ad') (d'>^c'd')!<)! | %29
!mf!!<(! (d2 g)!<)!!>(! (^c2 f)!>)!!<(! B>!>!g!>!f-!<)!!>(! [Bf]>!>!B!>!^A!>)! | %30
!p! B>!<(!gf-!<)!!>(! f>B^A!>)!!mf! e>!<(!dg!>(! (!tenuto!f!<)!e)!>)! d- | %31
!<(! d>^cf!>(! (!tenuto!e!<)!d)!>)!!<(! !>!c- c>Be!>(! (!tenuto!d!<)!c)!>)! B | %32
 ([GB]2!mf! [F^A]) !^!E!mf![I:staff +1] !>!E,2-[I:staff -1] (fB^A) B2 =c | %33
 (BG[I:staff +1]^D)[I:staff -1] =d2"_espr." =f (eA^G) A2 z | x2 !>!A- (A>^Gd- dc)B A^F^d | %35
 e2"^espr." (!>!B- B>^Ae!f!!<(! (=d2) e)!<)!!>(! (e2 f)!>)! | %36
!mf!!<(! (d>fb)!<)!!>(! (b>^ab)!>)!!p!!<(! (d>fb)!<)!!>(! (b>ab)!>)! | %37
!mf!!<(! (!>!e2 f)!<)!!>(! (f2 [eg])!>)!!<(! ([^ce]2 [Bd])!<)!!>(! ([Bd]2 [^Ac])!>)! | %38
 [Bd]2 [Bd] ([Bd]>[^ce][Bd]) B3- B>^A^G | %39
!<(! ^A>=g!>![Af-]!<)!!>(! [Bf]>BA!>)! ([FB]>!p![Q:1/4=70]"^poco rit."[A^c]!<(![Bd])!>(! f>B!<)!A!>)! | %40
[Q:1/4=74]"^a tempo"!<(! (B2 [Bd]) ([Bd]2 [A=f]) (!>![Af]2!<)! [^Ge])!>(! z2 z!>)! | %41
 d>=c'b- b>cB!<(! ([Ac]2 [ce]) ([ea]2 [_eg])!<)! | %42
!>(! (!>![_eg]2 [df])!>)!!<(! z2[Q:1/4=70] z!<)!!>(! c>_b[Q:1/4=65]"_-          -          -          -"[ca-]!>)! a>=BA | %43
!mp![Q:1/4=74]"^a tempo, tranquillo" (B>dg) (g>fg)!<(! (B>eg) (g>fg)!<)! | %44
 (G>AG)!<(! F>A[Ac]!<)!!>(! A>BA!>)! G>Bd | %45
!<(! f>ea!>(! (!tenuto!g!<)!^f)!>)! e-!<(! e>d"^dim."g!>(! (!tenuto!f!<)!e)!>)! (d- | %46
 [Bd]>!<(![ce][Ac]- [Ac]>[Bd][GB])!<)!"^(     )"!>(!!<(! !>!G2 [FA]!>)! z2 z!<)! | %47
"^dolce espr."!<(! (B2 A)!<)!!>(! (A2 G)!>)!!<(! G>e!>!d-!<)!!>(! [Gd]>GF!>)! | %48
!p!!<(! G>e!>!d-!<)!!>(! [Gd]>GF!>)!!mp!!<(! (B>dg) (g>fg)!<)! | %49
!mf!!<(! (B2 ^d)!<)!!>(! (d2 e)!>)! G>!>!c!>!B- (B3/2 x/ [Ac]) | %50
!p![I:staff +1] E>[I:staff -1]!>!c!>!B- B>[I:staff +1]!>!E!>!^D!mp!!<(![I:staff -1] (B>=d=f) ([df]>ef)!<)! | %51
!<(! [ce]2 [Bd]!<)!!>(! [Bd]2 [Gc]!>)!!<(! c>a!>![Bg-]!<)!!>(! [cg]>cB!>)! | %52
!p!!<(! c>a!>![Bg-]!<)!!>(! [cg]>c!mf!B!>)!"^molto espr." ([Gc]2 c) e2- ([Bd] | %53
!<(! [A^c]2) [ce]!<)!"_cresc.          -         -         -         -         -" !>![eg]3- [eg]2 f !>!=c'3- | %54
"_-          -          -          -          -          -          -" c'2 a (!>!e'3- e'2 d') !>!d'3- | %55
"_un poch. sost."!<(! (b>g)c'!<)!!>(! (b>c')a!>)!!<(!!<(! !^!g6-!<)!!<)! | %56
 (g>!<(!G)c!<)!!>(! (B>c)A!>)!!mf!!<(! (B2 c)!<)!!>(! (c2 d)!>)! | (B>dg) (g>fg)!p! (B>dg) (g>fg) | %58
!mf!"^dolente espr."!<(! (c'2 b)!<)!"^ed al          -          -          -          -          -          lar          -          -          -          -          gan          -"!>(! (b2 _b)!>)! ([gb]2 [ea]) (g2 f) | %59
"_cresc.          -          -          -          -          -          -" ([dg]2 [g_b]) ([gb]>[fac']b) !^!a6 | %60
"^do          -          -          -          -          -          al            -          -          -          -          -          fine          -          -          -          -          -          -"!f! a2 f (g2 a)"_dim.          -          -          -          -          -          -          -          -          -"[Q:1/4=70]!>(! ([Bd]>[ce]!>![Bd-]) ([Ad]>[Ba][cdf] | %61
[Q:1/4=65] ([Bdg]>)[Fce][GB-d-] [Bd]>)([DG][CF] [B,DG])!>)! z/!pp![Q:1/4=60] [FAce]/[GB-d-] [Bd]>([B,G][CF] | %62
[Q:1/4=55] !arpeggio!!fermata![B,DG]12) |] %63
V:2
 z6 G3 z2 !>!G- | E2 z D2 z D2 z D2 z | (d2 c) c2 c (c2 B) B2 B- | (G2 D) (D2 E) Tx2 F z2 F | %4
 D2 G z2"_poco   -        -         -       -       -" ([FA] [E^G]2) E z2 G | %5
 E2 A z2 B (A2 e) ([^ce]2 d) | ([^cg]2 e) !>!a3- a2 x A3- | %7
 ([Ad]>!<(![DF])[DB]!<)!"_espr."!>(! A>BG A2!>)! D (D2 ^C) | A,3- A,2 z (D2 C) (C2 B,) | %9
 x3 G3/2 x9/2 G3/2 x3/2 | (G2 B) (B2 e) (E2 F) (F2 G) | %11
 G>!>!c!>!B- B3/2 x3/2[I:staff +1] E>[I:staff -1]!>!c!>!B- B>[I:staff +1]!>!E!>!^D | %12
[I:staff -1] (B>d=f) ([df]>ef) ([ce]2 [Bd]) ([Bd]2 [Gc]) | x11 !>!=f- | %14
 f>ea (!tenuto!g^f) e- e>dg (!tenuto!fe) (d- | [Bd]>[ce]!>![Ac]- [Ac]>[Bd][GB]) !>!G2 x c3 | %16
 cB d =F3- FE A- A>^G!>!d- | dcB (AF^d) (B2 A) (A2 [GB]) | (G2 A) (A2 [GB]) (G2 ^G) (G2 A) | %19
 ([Ac]2 B) (B2 [Ac]) ([Ac]2 c) [Ac]2 [Ac] | [GB]2 B B2 B (^c2 ^A) (F2 A) | %21
 [B^d]>=cB ([GB]2 A) B3 x3/2 (G/[FA]) | (G>Be) x3 E3 G2 !>!E- | F2 z B,2 x [B,G]2 z B,2 z | %24
 E2 z D2 x [DB]2 z D2 z | G2 G e2 d [^ce]2 [ce] [df]2 c | [Ad]2 d d2 [A^c] A2 D (F>G)E | %27
 (A2 G) (G2 F) x6 | x6 d2 f f2 b | x2 ^c ^A2 B x2 ^A x3 | x2 ^A B2 !>![eg] f2 z B2 x | %31
 (B2 =A) z2 A (A2 G) z2 G | z2 !^!^c x2"^espr." g x2 F x2 z | z2 !tenuto!.b z2 x3 (=D- D>^C=G- | %34
 G"_cresc.          -          -          -          -          -          -           -"=F)E D[I:staff +1]B,[I:staff -1] z z2 (E- E>[I:staff +1]^D[I:staff -1]A- | %35
 AG)F E[I:staff +1]^C[I:staff -1]^A B3 B3 | (B2 ^c) (c2 d) (d2 ^d) (d2 e) | %37
 (B2 =d) (d2 ^c) ([EG]2 G) [EG]2 [EG] | [DF]2 z z2 z (^G2 ^E) (^C2 ^E) | %39
 ^c2 x11/2 g/f- [FB]2 [EF] | [DF]2 z z2 z z3/2!f! =c/B- B>d^c | A3 x3/2 ^F/^G E2 x c2 c | %42
 A>_Bc !>!A>"_rit.          -"c=B x3 F>EF | G2 z z2 z G3 z2 !>!G- | E2 z D2 z D2 z D2 !>!f- | %45
 (d2 c) c2 c (c2 B) B2 B- | (G2 D) (D2 E) D2 x4 | ([DG]2 [CF]) ([CF]2 [B,D]) x6 | %48
 x6 (G2 B) (B2 e) | ([EG]2 [FA]) ([FA]2 [GB]) [Be]2 A G2 x | %50
 ([GB]3/2 x/ [A^d]) ([Ge]2 [fa]) [eg]2 =d (B2 c) | G2 =F F2 E x6 | x5 =f (!>!f2 e) x3 | %53
 e2 A x2 ^c A2 d z2 (e | d2 e) (a2 g) (f2 a) z2!f! c' | %55
 d'2 g [dg]3 ([dg]>"_espr."[GB])[Ge]"_decresc.          -          -          -          -"!>(!!>(! ([Bd]>e)c!>)!!>)! | %56
 d2 [EG] ([DG]2 [CF]) [B,D]2 z G3 | (G2 A) (A2 B) B3- B2 c | %58
 ([eg]2 d) (d2 [^ce]) ([ce]2 A) (A>GA) | _B2 d d2 g ([eg]2 [A^ce]) ([Ac]2 [Acg]) | %60
 ([Adf]>[Ge][Ad]) ([Bd]>e[cf]) x6 | x12 | x12 |] %63
V:3
 (G,2 F,) (F,2 E,) (E,2 D,) (D,2 C,) | (C,2 A,,) (D,2 D,,) G,,2 z B,,2 z | %2
 C,2 z A,,2 z B,,2 z G,,2 z | (E,,2 F,,) (G,,2 C,,) (D,,>A,,D,) (D,>C,D,) | %4
 (G,,>B,,D,) (D,>C,D,) (E,,>B,,E,) (E,>D,E,) | (A,,>^C,E,) (E,>D,E,) (^C,>E,G,) (G,>F,G,) | %6
 (E,>G,^C) (C>B,C) (D2 B,) (A,2 G,) | (F,2 G,) (F,2 E,) (F,2 B,,) A,,2 A,, | %8
 (D,2 =C,) (B,,2 A,,)!mf!!p! G,,3 z2 z | G,6 G,6 | (G,2 F,) (F,2 E,) E,2 z z2 z |!>(! B,6!>)! B,6 | %12
 (E,2 D,) (D,2 C,) C, z z z2 z |[K:treble] C6 C6 |[K:bass]!mf! C, z z A,,2 z B,,2 z G,,2 z | %15
 (E,,2 F,,) (G,,2 C,,) D,,2 D, E,2 F, | (G,2 G,,) (A,,2 B,,) (C,2 C) (B,2 E,) | %17
 (A,2 =G,) (F,2 B,,)!mf!"^espr." ((!arpeggio!G2 F) (F2 E)) | [E,B,] z z z2 z [E,B,]2 z z2 z | %19
!<(! E,2 z!<)!!>(! z2 z!>)!!<(! (C,>E,A,)!<)!!>(! (A,>=G,A,)!>)! | %20
!<(! (B,,>E,B,)!<)!!>(! (B,>A,B,)!>)!!<(! (^A,,>E,^C)!<)!!>(! (C>B,C)!>)! | %21
 (=A,,2 A,) (G,2 F,)[K:treble] [G,B,]3 [B,F]3/2 z/[K:bass] B,, | %22
 (E,2 D,) (D,2 C,) (C,2 B,,) (B,,2 A,,) | (A,,2 G,,) (B,,2 B,,) (E,,2 B,,) (E,2 D,) | %24
 (C,2 A,,) (D,2 D,,) (G,,2 D,) (G,2 F,) | %25
 (E,2 D,) (^C,2 B,,) (([A,,A,]2 [G,,G,])) (([F,,F,]2 [E,,E,])) | %26
 ([D,,D,]2 [B,,B,]) ([A,,A,]2 [G,,G,]) ([F,,F,]2 [B,,B,]) ([G,,G,]2 [A,,A,]) | %27
 [D,,D,]2 z z2 z[K:treble] ([FA]2 G) (F2 [EG]) | %28
 ([FA]2 G) (F2 [EG])[K:bass] ([D,D]2 [^C,^C]) ([C,C]2 [B,,B,]) | (F2 E) (E2 D) (D2 ^C) (D2 E) | %30
 (D2 ^C) (D2 E) F2 !>!D G2 z | E2 z A,2 z D2 z G,2 z | %32
 F,2 F, (G,E,^A,,) (B,,2 ^C,) [^D,F,]2 [D,F,] | E,2 [F,A,] [^G,B,]2- [G,B,] (A,2 E,) (A,,2 ^C,) | %34
 D,2 =C, B,,2 E, A,2 =G, F,2 B, | E,2 D, ^C,2 F, B,,2 z z2 z |[K:treble] B,2 z z2 z B,2 z z2 z | %37
 [B,G]2 z z2 z[K:bass] (G,,>B,,E,) (E,>D,E,) | %38
!<(! (F,,>B,,F,)!<)!!>(! (F,>E,F,)!>)!!<(! (^E,,>B,,^G,)!<)!!>(! (G,>F,G,)!>)! | %39
 =E,2 E, (D,2 ^C,) (D,2 B,,) F,2 F, | %40
!<(! (B,,>F,B,)!<)!!>(! (B,>A,B,)!>)! !tenuto![E,,E,]2 z z2 z | %41
 z2 [E,^G,] ([E,G,]2 E,,) (A,,>E,A,) (A,>G,A,) | %42
 [D,,D,]2[K:treble] [FA] (([DF]2 [DG])) (([FA]2 [DF]))[K:bass] (D,2 D,) | %43
 (G,2 F,) (F,2 E,) (E,2 D,) (D,2 C,) | (C,2 A,,) (D,2 D,,) G,,2 z B,,2 z | %45
 C,2 z A,,2 z B,,2 z G,,2 z | (E,,2 F,,) (G,,2 C,) (D,2 C,) (B,,2 A,,) |!mf! G,,2 z z2 z G,6 | %48
 G,6 (G,2 F,) (F,2 E,) | E,2 z z2 z x2 ^D E>!>!E!>!D | B,6 (E,2 =D,) (D,2 C,) | %51
!mf! C,2 z z2 z[K:treble] C6 | C6[K:bass]"_poco marc."!<(! (C,>E,G,)!<)!!>(! (G,>=F,G,)!>)! | %53
!<(! (A,,>E,A,)!<)!!>(! (A,>G,A,)!>)!!<(! (D,>F,A,)!<)!!>(! (A,>G,A,)!>)! | %54
!<(! (F,,>A,,C,)!<)!!>(! (C,>B,,D,)!>)!!<(! (A,,>C,F,)!<)!!>(! (F,>E,F,)!>)! | %55
 ([G,,G,]2 E,) (D,2 C,) (B,,2 C,) (B,,2 A,,) | (B,,2 C,) (D,>C,D,) G,,2 z z2 z | %57
 G,2 z z2 z [G,D]2 z z2 z | G,2 z z2 z!<(! (E,>G,^C)!<)!!>(! (C>B,C)!>)! | %59
!<(! (D,>G,D)!<)!!>(! (D>=CD)!>)!!<(! (^C,>G,E)!<)!!>(! (E>DE)!>)! | %60
 [=C,=C]2 z ([B,,B,]2 [A,,A,]) (G,>F,G,-) (G,>F,A, | %61
 [G,,G,]2) z (G,>B,A, [G,,G,]2) z ([G,D-]2 [A,D]) | !arpeggio!!fermata![G,,D,G,]12 |] %63
V:4
 D2 z D2 z E2 z x3 | x12 | G,2 x4 F,2 x4 | x12 | x12 | x12 | x12 | x5 B, (A,2 G,) (A,2 G,) | %8
 F,3- F,2 z !>!G,6 | ([B,D]2 [CF]) (B,2 [A,C]) ([B,D]2 [CF]) (B,2 [A,C]) | [B,D]2 z D2 z !>!B,6 | %11
 x2 ^D E>!>!E!>!D x6 | E2 x4 !>!C6 |[K:treble] [EG]2 =F E2 [DF] [EG]2 F E2 [DF] | %14
[K:bass] C z !>!E A,2 z F,2 z z2 z | x8 F, x3 | x12 | x2 B, (C2 B,) E, x5 | x2 F F2 x E2 D D2 C | %19
 (A,>CE) (E>^DE) x6 | x12 | x3 B,>E[=C^D][K:treble] (E>[^DF]G) A3/2 z/[K:bass] B, | B,3- B,2 z x6 | %23
 x12 | x12 | x12 | x12 | x6[K:treble] D6 | D6[K:bass] x6 | B,6 B,6 | B,6 B,2 z G,2 x | %31
 A,2 x F,2 x G,2 x E,2 x | x6 (E,D,) E, (!>!=A,3- | A,G,) x E2 !>!=D- DC x E,2- E, | %34
 A,2 x3 ^G, A,2 !>!B, C2 B, | B,2 =D G,2 F, B,2 ^C C2 D | %36
[K:treble] [DF]2 [EG] [EG]2 F [FB]2 A [FA]2 G | (E>GB) (B>^AB)[K:bass] x6 | x12 | %39
 (F,2 ^C) (F,2 E,) (F,2 B,) (D2 C) | x8 [B,E] ([^G,E]2 A,) | (B,2 D) E2 x7 | %42
 x2[K:treble] x7[K:bass] (C>B,C) | [B,D]2 z D2 x z x5 | x12 | G,2 x4 F,2 x4 | x12 | %47
 !>!G,6 ([B,D]2 [CF]) (B,2 [A,C]) | ([B,D]2 [CF]) (B,2 [A,C]) [B,D]2 z D2 z | !>!B,6 B,6 | %50
 x6 E2 x3 G, | !>!C6[K:treble] ([EG]2 =F) (E2 [DF]) | ([EG]2 =F) (E2 [DF])[K:bass] x6 | x12 | x12 | %55
 x12 | x6 (G,2 A,) (A,2 B,) | (D2 C) (C2 D) (G2 =F) (F2 E) | (C>EG) (G>^FG) x6 | x12 | %60
 x6 (B,,2 G,,) (D,2 D,) | x12 | x12 |] %63
V:5
 x12 | A x5 B2 x z2 =f- | x12 | x12 | x12 | x12 | x6 d2 d d2 ^c | x3 F2 x7 | x12 | x12 | x12 | %11
 x12 | x12 | x12 | x12 | x6 TB2 x4 | x12 | x6 e2 x4 | x12 | x12 | x6 !>!f6- | x2 F x9 | x12 | %23
 C2 z z2 A z2 x4 | A3 z2 A- x6 | (d^c)e !>!g3- x6 | x9 B2 A | x12 | x12 | x12 | x6 B2 x4 | x12 | %32
 x12 | x12 | x12 | x12 | x12 | x12 | x6 !>!^c3- c3 | x12 | x11 A | x5 E x6 | x12 | x12 | %44
 A3 x3 B3 x z2 | x12 | x6 TB2 x4 | x12 | x12 | x12 | x12 | x12 | x12 | x12 | x12 | x5 f x6 | %56
 x6 G3 x3 | x12 | x9 e2 a | x12 | x12 | x12 | x12 |] %63
V:6
 x12 | x12 | x12 | x12 | x12 | x12 | x12 | x12 | x12 | x12 | x12 | x12 | x12 |[K:treble] x12 | %14
[K:bass] x12 | x12 | x12 | x12 | E6 x6 | x12 | x12 | x6[K:treble] x2 E x2[K:bass] x | x12 | x12 | %24
 x12 | x12 | x12 | x6[K:treble] x6 | x6[K:bass] x6 | x12 | x12 | x12 | x12 | x12 | x12 | x12 | %36
[K:treble] x12 | x6[K:bass] x6 | x12 | x12 | x12 | x12 | x2[K:treble] x7[K:bass] x3 | x12 | x12 | %45
 x12 | x12 | x12 | x12 | x12 | x12 | x6[K:treble] x6 | x6[K:bass] x6 | x12 | x12 | x12 | x12 | %57
 x12 | x12 | x12 | x12 | x12 | x12 |] %63

